svg/free/list-rich.svg

<svg version="1.1" xmlns="http://www.w3.org/2000/svg" width="24" height="24" viewBox="0 0 24 24">
<title>list-rich</title>
<path d="M0.75 6.75h5.625v-5.625h-5.625zM2.25 2.625h2.625v2.625h-2.625z"></path>
<path d="M0.75 15h5.625v-5.625h-5.625zM2.25 10.875h2.625v2.625h-2.625z"></path>
<path d="M0.75 23.25h5.625v-5.625h-5.625zM2.25 19.125h2.625v2.625h-2.625z"></path>
<path d="M8.25 1.125h15v1.5h-15v-1.5z"></path>
<path d="M8.25 5.25h12v1.5h-12v-1.5z"></path>
<path d="M8.25 9.375h15v1.5h-15v-1.5z"></path>
<path d="M8.25 13.5h12v1.5h-12v-1.5z"></path>
<path d="M8.25 21.75h12v1.5h-12v-1.5z"></path>
<path d="M8.25 17.625h15v1.5h-15v-1.5z"></path>
</svg>

<svg xmlns="http://www.w3.org/2000/svg" width="24" height="24" viewBox="0 0 24 24"><path d="M.75 6.75h5.625V1.125H.75zm1.5-4.125h2.625V5.25H2.25zM.75 15h5.625V9.375H.75zm1.5-4.125h2.625V13.5H2.25zM.75 23.25h5.625v-5.625H.75zm1.5-4.125h2.625v2.625H2.25zM8.25 1.125h15v1.5h-15v-1.5zM8.25 5.25h12v1.5h-12v-1.5zM8.25 9.375h15v1.5h-15v-1.5zM8.25 13.5h12V15h-12v-1.5zM8.25 21.75h12v1.5h-12v-1.5zM8.25 17.625h15v1.5h-15v-1.5z"/></svg>
